X:2991
T:Jenny Picking Cockles
O:england
C:Trad
R:Reel
M:C|
K:DMix
L:1/8
Addc AGEF|GEcE dEcE|Addc AGEF|GEcE EDD2|Addc AGEF|GE RE2 c3d|
edcA AGEF|GEcE EDD2:|=f3d e3 d|cAAB cdeg|=f3d e3d |eage edde|
=f3d e3d | cAAB c3d | edcA AGEF|GEcE EDD2 ||


